articles/cognitive-services/Speech-Service/media/index/logo_python.svg

<svg xmlns="http://www.w3.org/2000/svg" id="Layer_1" data-name="Layer 1" viewBox="0 0 64 64" width="100%" height="100%"  xmlns:xlink="http://www.w3.org/1999/xlink"><rect id="svgEditorBackground" x="0" y="0" width="64" height="64" style="fill: none; stroke: none;"/><defs><style>.cls-1{fill:#3772a4;}.cls-2{fill:#fff;}.cls-3{fill:#ffda4b;}</style></defs><title>logo_python</title><path class="cls-1" d="M0,31.46a1.6300000000000003,1.6300000000000003,0,0,0,0.06000000000000002,-0.2699999999999996c0.05000000000000001,-0.9299999999999997,0.060000000000000005,-1.870000000000001,0.16000000000000003,-2.8000000000000007a16,16,0,0,1,2.9,-8.39a8.43,8.43,0,0,1,5.78,-3.3599999999999994a7.91,7.91,0,0,1,1,-0.05999999999999872h21.58c0.4200000000000017,0,0.4200000000000017,0,0.4200000000000017,-0.4200000000000017s0,-1,0,-1.5c0,-0.3100000000000005,-0.08999999999999986,-0.3800000000000008,-0.379999999999999,-0.3800000000000008h-11.910000000000004c-0.9299999999999997,0,-1.8599999999999994,0,-2.780000000000001,0c-0.25,0,-0.33999999999999986,-0.07000000000000028,-0.33999999999999986,-0.33000000000000007c0,-2.4399999999999995,0,-4.890000000000001,0,-7.33a4.28,4.28,0,0,1,1.240000000000002,-2.8199999999999994a8.91,8.91,0,0,1,3.6099999999999994,-2.33a22.22,22.22,0,0,1,5.199999999999999,-1.1899999999999997a43.78,43.78,0,0,1,7.310000000000002,-0.22a23.83,23.83,0,0,1,7.700000000000003,1.4300000000000002a9.46,9.46,0,0,1,4.32,3a6.05,6.05,0,0,1,1.259999999999998,4.1c-0.060000000000002274,1.2400000000000002,0,2.49,0,3.74c0,2.3100000000000005,0,4.619999999999999,0,6.92c0,1.3599999999999994,0,2.7300000000000004,-0.060000000000002274,4.079999999999998a7.23,7.23,0,0,1,-4.689999999999998,6.719999999999999a10.72,10.72,0,0,1,-4.189999999999998,0.8000000000000007h-15.280000000000005a8.72,8.72,0,0,0,-4.599999999999998,1.2099999999999973a8,8,0,0,0,-3.530000000000003,4.940000000000005a11.55,11.55,0,0,0,-0.4299999999999997,3.1700000000000017c0,2.3100000000000023,0,4.619999999999997,0,6.93c0,0.46000000000000085,0,0.45000000000000284,-0.46000000000000085,0.46000000000000085c-1.6600000000000001,0,-3.3200000000000003,0.04999999999999716,-5,0a7,7,0,0,1,-4.43,-1.8200000000000003a11,11,0,0,1,-3.059999999999999,-4.740000000000002a20.2,20.2,0,0,1,-1.13,-5.130000000000003c-0.1,-1.1199999999999974,-0.14,-2.240000000000002,-0.21000000000000002,-3.3500000000000014a3.3,3.3,0,0,0,-0.06000000000000001,-0.36999999999999744q0,-0.33999999999999986,0,-0.6899999999999977Z"/><path d="M20.27,7.65a2.81,2.81,0,1,0,2.81-2.83A2.83,2.83,0,0,0,20.27,7.65Z"/><path class="cls-2" d="M20.27,7.65a2.81,2.81,0,1,1,5.63,0,2.81,2.81,0,1,1-5.63,0Z"/><path class="cls-3" d="M64,32.54a1.6300000000000003,1.6300000000000003,0,0,0,-0.060000000000002274,0.2700000000000031c-0.04999999999999716,0.9299999999999997,-0.060000000000002274,1.8699999999999974,-0.1599999999999966,2.799999999999997a16,16,0,0,1,-2.8999999999999986,8.39a8.43,8.43,0,0,1,-5.780000000000001,3.3699999999999974a7.91,7.91,0,0,1,-1,0.060000000000002274h-21.58c-0.4200000000000017,0,-0.4200000000000017,0,-0.4200000000000017,0.4200000000000017s0,1,0,1.5c0,0.3100000000000023,0.09000000000000341,0.38000000000000256,0.38000000000000256,0.38000000000000256h11.909999999999997c0.9299999999999997,0,1.8599999999999994,0,2.780000000000001,0c0.25,0,0.3400000000000034,0.07000000000000028,0.3400000000000034,0.3299999999999983c0,2.4399999999999977,0,4.890000000000001,0,7.329999999999998a4.28,4.28,0,0,1,-1.240000000000002,2.8200000000000003a8.91,8.91,0,0,1,-3.6099999999999994,2.3299999999999983a22.22,22.22,0,0,1,-5.189999999999998,1.1899999999999977a43.78,43.78,0,0,1,-7.310000000000002,0.21999999999999886a23.83,23.83,0,0,1,-7.699999999999999,-1.4299999999999997a9.46,9.46,0,0,1,-4.32,-3a6.05,6.05,0,0,1,-1.2600000000000016,-4.100000000000001c0.05999999999999872,-1.240000000000002,0,-2.490000000000002,0,-3.740000000000002c0,-2.3100000000000023,0,-4.619999999999997,0,-6.920000000000002c0,-1.3599999999999994,0,-2.729999999999997,0.05999999999999872,-4.079999999999998a7.23,7.23,0,0,1,4.690000000000001,-6.719999999999999a10.72,10.72,0,0,1,4.190000000000001,-0.7999999999999972h15.27a8.72,8.72,0,0,0,4.600000000000001,-1.2100000000000009a8,8,0,0,0,3.529999999999994,-4.949999999999996a11.55,11.55,0,0,0,0.4299999999999997,-3.1700000000000017c0,-2.3099999999999987,0,-4.620000000000001,0,-6.93c0,-0.46000000000000085,0,-0.4499999999999993,0.46000000000000085,-0.46000000000000085c1.6599999999999966,0,3.3200000000000003,-0.05000000000000071,5,0a7,7,0,0,1,4.43,1.8200000000000003a11,11,0,0,1,3.0600000000000023,4.740000000000002a20.2,20.2,0,0,1,1.1199999999999974,5.149999999999999c0.10000000000000142,1.120000000000001,0.14000000000000057,2.240000000000002,0.21000000000000085,3.3500000000000014a3.3,3.3,0,0,0,0.060000000000002274,0.35999999999999943q0.00999999999999801,0.3299999999999983,0.00999999999999801,0.6799999999999997Z"/><path d="M43.73,56a2.81,2.81,0,1,0-2.81,2.83A2.83,2.83,0,0,0,43.73,56Z"/><path class="cls-2" d="M43.73,56a2.81,2.81,0,1,1-5.63,0,2.81,2.81,0,1,1,5.63,0Z"/><text style="fill:black; font-family: Arial; font-size:10px;" x="17.3572" y="35" id="e1_texte"  dx="" dy="">Python</text></svg>

<svg id="Layer_1" data-name="Layer 1" xmlns="http://www.w3.org/2000/svg" viewBox="0 0 64 64"><defs><style>.cls-1{fill:#3772a4;}.cls-2{fill:#fff;}.cls-3{fill:#ffda4b;}</style></defs><title>logo_python</title><path class="cls-1" d="M0,31.46a1.63,1.63,0,0,0,.06-.27c.05-.93.06-1.87.16-2.8A16,16,0,0,1,3.12,20,8.43,8.43,0,0,1,8.9,16.64a7.91,7.91,0,0,1,1-.06H31.48c.42,0,.42,0,.42-.42s0-1,0-1.5c0-.31-.09-.38-.38-.38H19.61c-.93,0-1.86,0-2.78,0-.25,0-.34-.07-.34-.33,0-2.44,0-4.89,0-7.33A4.28,4.28,0,0,1,17.73,3.8a8.91,8.91,0,0,1,3.61-2.33A22.22,22.22,0,0,1,26.54.28,43.78,43.78,0,0,1,33.85.06a23.83,23.83,0,0,1,7.7,1.43,9.46,9.46,0,0,1,4.32,3,6.05,6.05,0,0,1,1.26,4.1c-.06,1.24,0,2.49,0,3.74,0,2.31,0,4.62,0,6.92,0,1.36,0,2.73-.06,4.08a7.23,7.23,0,0,1-4.69,6.72,10.72,10.72,0,0,1-4.19.8H22.91a8.72,8.72,0,0,0-4.6,1.21A8,8,0,0,0,14.78,37a11.55,11.55,0,0,0-.43,3.17c0,2.31,0,4.62,0,6.93,0,.46,0,.45-.46.46-1.66,0-3.32.05-5,0a7,7,0,0,1-4.43-1.82A11,11,0,0,1,1.4,41,20.2,20.2,0,0,1,.27,35.87c-.1-1.12-.14-2.24-.21-3.35A3.3,3.3,0,0,0,0,32.15Q0,31.81,0,31.46Z"/><path d="M20.27,7.65a2.81,2.81,0,1,0,2.81-2.83A2.83,2.83,0,0,0,20.27,7.65Z"/><path class="cls-2" d="M20.27,7.65a2.81,2.81,0,1,1,5.63,0,2.81,2.81,0,1,1-5.63,0Z"/><path class="cls-3" d="M64,32.54a1.63,1.63,0,0,0-.06.27c-.05.93-.06,1.87-.16,2.8A16,16,0,0,1,60.88,44a8.43,8.43,0,0,1-5.78,3.37,7.91,7.91,0,0,1-1,.06H32.52c-.42,0-.42,0-.42.42s0,1,0,1.5c0,.31.09.38.38.38H44.39c.93,0,1.86,0,2.78,0,.25,0,.34.07.34.33,0,2.44,0,4.89,0,7.33a4.28,4.28,0,0,1-1.24,2.82,8.91,8.91,0,0,1-3.61,2.33,22.22,22.22,0,0,1-5.19,1.19,43.78,43.78,0,0,1-7.31.22,23.83,23.83,0,0,1-7.7-1.43,9.46,9.46,0,0,1-4.32-3,6.05,6.05,0,0,1-1.26-4.1c.06-1.24,0-2.49,0-3.74,0-2.31,0-4.62,0-6.92,0-1.36,0-2.73.06-4.08a7.23,7.23,0,0,1,4.69-6.72,10.72,10.72,0,0,1,4.19-.8H41.09a8.72,8.72,0,0,0,4.6-1.21A8,8,0,0,0,49.22,27a11.55,11.55,0,0,0,.43-3.17c0-2.31,0-4.62,0-6.93,0-.46,0-.45.46-.46,1.66,0,3.32-.05,5,0a7,7,0,0,1,4.43,1.82A11,11,0,0,1,62.6,23a20.2,20.2,0,0,1,1.12,5.15c.1,1.12.14,2.24.21,3.35a3.3,3.3,0,0,0,.06.36Q64,32.19,64,32.54Z"/><path d="M43.73,56a2.81,2.81,0,1,0-2.81,2.83A2.83,2.83,0,0,0,43.73,56Z"/><path class="cls-2" d="M43.73,56a2.81,2.81,0,1,1-5.63,0,2.81,2.81,0,1,1,5.63,0Z"/></svg>
